X: 1102
T: Hüseynî Peşrev
C: Derviş Mustafa
O: Turkey
F: http://compmusic.upf.edu/node/140
N: huseyni--pesrev--havi----dervis_mustafa
N: makam= huseyni
N: form= pesrev
N: usul= havi = 64/4
M: 64/4
L: 1/16
K: C _2/4B ^3/4f  
Q: 1/4=99
%%MIDI tuningsystem comma53
g4 =f4 g4 a4  | g8 c'4 b4  | a12 b4  | a4 g4 =f4 e4  | \
w:  SERHÂNE  |   |   |   | 
g4 =f4 g4 a4  | g8 c'4 b4  | a12 b4  | 
w:   |   |   | 
g4 =f4 e4 d4  | e4 =f4 g4 a4  | =f4 g4 a8  | \
w:   |   |   | 
g4 a4 g4 =f4  | e4 d4 e4 =f4  | g4 =f4 e4 d4  | 
w:   |   |   | 
=f4 e4 d4 c2 B2  | c4 d4 c4 B4  | A16  | \
w:   |   |   | 
c4 d4 e4 d4  | e4 d4 e4 d4  | f4 g4 f4 e4  | 
w:  MÜLÂZİME  |   |   | 
d4 c4 B4 A4  | c4 d4 e4 d4  | e4 d4 e4 d4  | \
w:   |   |   | 
f4 g4 f4 e4  | d4 c4 B4 A4  | B4 c4 d4 c4  | 
w:   |   |   | 
d4 c4 d4 c4  | d4 e2 d2 c4 B4  | c16  | \
w:   |   |   | 
d4 e2 d2 e2 d2 c2 B2  | c12 B2 c2  | \
w:   |   | 
d4 c2 B2 B4 A4  | 
w:   | 
A16  | d4 c4 d4 c4  | d4 c4 B4 A4  | B2 c2 d2 e2 e2 d2 c2 B2  | \
w:   |   |   |   | 
c12 B4  | c4 B4 c4 B4  | 
w:   |   | 
c4 B4 c4 B4  | c4 d2 c2 d4 c2 B2  | A16  | \
w:   |   |   | 
B2 A2 B4 c2 B2 c4  | d2 c2 d4 e4 d2 B2  | 
w:   |   | 
c4 B8 A4  | A4 B4 G8  | d4 e4 d4 B4  | c12 B4  | \
w:   |   |   |   | 
d4 B8 A4  | A16  | e4 d4 e4 =f4  | g12 =f4  | 
w:   |   |  HÂNE-İ SÂNİ  |   | 
g4 a2 g2 a4 g2 =f2  | =f4 f2 e2 e4 d4  | \
w:   |   | 
e4 d4 e4 =f4  | g12 =f4  | g4 a2 g2 a4 g2 =f2  | 
w:   |   |   | 
=f4 e4 d4 c4  | d4 c4 d8  | d4 g2 =f2 e8  | \
w:   |   |   | 
d2 c2 d2 e2 e2 d2 c2 B2  | c12 B4  | 
w:   |   | 
d4 d2 e2 e2 d2 c2 B2  | c12 B2 c2  | \
w:   |   | 
d4 B8 A4  | A16  | c4 d4 e4 d4  | e4 d4 e4 d4  | 
w:   |   |  MÜLÂZİME  |   | 
f4 g4 f4 e4  | d4 c4 B4 A4  | c4 d4 e4 d4  | \
w:   |   |   | 
e4 d4 e4 d4  | f4 g4 f4 e4  | d4 c4 B4 A4  | 
w:   |   |   | 
B4 c4 d4 c4  | d4 c4 d4 c4  | d4 e2 d2 c4 B4  | c16  | \
w:   |   |   |   | 
d4 e2 d2 e2 d2 c2 B2  | 
w:   | 
c12 B2 c2  | d4 c2 B2 B4 A4  | A16  | d4 c4 d4 c4  | \
w:   |   |   |   | 
d4 c4 B4 A4  | B2 c2 d2 e2 e2 d2 c2 B2  | 
w:   |   | 
c12 B4  | c4 B4 c4 B4  | c4 B4 c4 B4  | \
w:   |   |   | 
c4 d2 c2 d4 c2 B2  | A16  | B2 A2 B4 c2 B2 c4  | 
w:   |   |   | 
d2 c2 d4 e4 d2 B2  | c4 B8 A4  | A4 B4 G8  | \
w:   |   |   | 
d4 e4 d4 B4  | c12 B4  | d4 B8 A4  | 
w:   |   |   | 
A16  | =f4 e4 f4 ^g4  | a8 ^g4 =f4  | e4 a4 ^g4 =f4  | \
w:   |  HÂNE-İ SÂLİS  |   |   | 
e4 d4 ^c4 B4  | A8 =f4 ^g4  | a8 ^g4 =f4  | 
w:   |   |   | 
e4 d4 ^c4 B4  | A8 B4 ^c4  | d8 ^c4 B4  | \
w:   |   |   | 
A4 d4 ^c4 B4  | A16  | e4 d4 ^c4 B4  | ^c4 B4 A8  | 
w:   |   |   |   | 
^c4 d4 c4 B4  | A16  | c4 d4 e4 d4  | e4 d4 e4 d4  | \
w:   |   |  MÜLÂZİME  |   | 
f4 g4 f4 e4  | d4 c4 B4 A4  | 
w:   |   | 
c4 d4 e4 d4  | e4 d4 e4 d4  | f4 g4 f4 e4  | \
w:   |   |   | 
d4 c4 B4 A4  | B4 c4 d4 c4  | d4 c4 d4 c4  | 
w:   |   |   | 
d4 e2 d2 c4 B4  | c16  | d4 e2 d2 e2 d2 c2 B2  | \
w:   |   |   | 
c12 B2 c2  | d4 c2 B2 B4 A4  | 
w:   |   | 
A16  | d4 c4 d4 c4  | d4 c4 B4 A4  | B2 c2 d2 e2 e2 d2 c2 B2  | \
w:   |   |   |   | 
c12 B4  | c4 B4 c4 B4  | 
w:   |   | 
c4 B4 c4 B4  | c4 d2 c2 d4 c2 B2  | A16  | \
w:   |   |   | 
B2 A2 B4 c2 B2 c4  | d2 c2 d4 e4 d2 B2  | 
w:   |   | 
c4 B8 A4  | A4 B4 G8  | d4 e4 d4 B4  | c12 B4  | \
w:   |   |   |   | 
d4 B8 A4  | A16  | |


